X:1
T:Mobile, 11.11.11.11
T:Mobile, 11.11.11.11
T:John P. Campbell, ca. 1912
T:Public Domain Courtesy of the Cyber Hymnal™
C:John P. Campbell, ca. 1912
Z:Public Domain
Z:Courtesy of the Cyber Hymnal™
%%score ( 1 2 ) ( 3 4 )
L:1/8
Q:1/4=115
M:4/4
K:E
V:1 treble 
V:2 treble 
V:3 bass 
V:4 bass 
V:1
 [EG]2 | [EA]4 [EG]2 [DF]2 | [EB]4 E2 [EF]2 | (G2 A2) [DF]2 [DG]2 | E6 [DF]2 | [EG]4 [EA]2 [=DB]2 | %6
 c4 [EB]2 [EB]2 | (B2 ^A2) [EG]2 [EA]2 | [DB]6 [DB]2 | [Dc]4 [DF]2 [Dc]2 | [Ec]4 [EB]2 E2 | %11
 A4 [CA]2 [DB]2 | [EG]6 [FB]2 | [Ge]4 [Gd]2 [Dc]2 | (B2 G2) [FB]2 [FA]2 | [EG]4 [DF]3 E | E6 |] %17
V:2
 x2 | x8 | x4 E2 x2 | E4 x4 | E6 x2 | x8 | (C2 E2) x4 | E4 x4 | x8 | x8 | x6 E2 | E2 D2 x4 | x8 | %13
 x8 | E4 x4 | x7 E | E6 |] %17
V:3
 [E,B,]2 | [E,C]4 [E,B,]2 [E,A,]2 | [E,G,]4 [C,G,]2 [=C,A,]2 | (B,2 C2) [B,,A,]2 [B,,B,]2 | %4
 [E,G,]6 [E,A,]2 | [E,B,]4 [C,A,]2 [B,,G,]2 | A,4 [E,G,]2 [E,G,]2 | (G,2 ^A,2) [F,B,]2 [F,C]2 | %8
 [B,,B,]6 B,2 | [A,B,]4 [A,B,]2 [A,B,]2 | [G,B,]4 [G,B,]2 [G,B,]2 | [F,B,]4 [F,B,]2 [B,,B,]2 | %12
 [E,B,]6 [D,F,]2 | E,2 G,2 [B,,G,]2 [A,,A,]2 | [G,,B,]4 [A,,C]2 [A,,C]2 | %15
 (B,2 G,2) [B,,A,]3 [E,G,] | [E,G,]6 |] %17
V:4
 x2 | x8 | x8 | B,,4 x4 | x8 | x8 | (A,,2 C,2) x4 | C,4 x4 | x6 B,2 | x8 | x8 | x8 | x8 | C,4 x4 | %14
 x8 | B,,4 x4 | x6 |] %17

